X:1
T:Partition sans titre
C:Compositeur / Arrangeur
L:1/8
M:4/4
I:linebreak $
K:G
V:1 treble nm="Violon" snm="Vln."
V:1
"G" dedc B2 b2 | g6 d2 |"C" e2 d2 c2 B2 |"D" A6 AB |"C" cdcB"D" A2 a2 |1 f6 Pf2 | e2 d2 ^c2 =c2 | %7
"G" B6 Bc :|2 f6 e2 | d2 d2 e2 f2 |"G" gfga g2 dc |:"G" BGGF GBdB |"C" c2 cB ceag |"D" fdd^c dfaf | %14
"G" gfga gedc |"G" BGGF GBdB |"C" c2 cB ceag |"D" fdd^c dfaf |1"G" gbaf g2 dc :|2"G" gbaf g2 Bc |] %20
